X:931
T:Candlemas Eve
O:england
M:4/4
C:Arr. R. Herrick
S:Hymn 126
N:from an old church-gallery book
H:The old church-gallery book was discovered by the Rev. L.J.T. Darwall.
The source has a 4-part harmony.
A:CofE
R:Reel
%:NoTeX
%P:(AB)$^3$
%P:(AB)3
K:G
%%%%%%%%%%%%%%%%%%%%%%%%
P:A
V:1
%%MIDI program 75
D2  | G2  G2  B2  G2  | E2  F2  G2  Bd  | c2  B2   A2  G2  | A6  \
Bc  | d2  B2  G2  AB  | c2  A2  F2  GA  | B2  G2   E2  F2  | G6  ||
V:2
D2  | D2  C2  B,2 D2  | C2  C2  D2  D2  | G2  G2   E2  E2  | F6  \
G2  | G2  F2  E2  D2  | C2  E2  D2  E2  | D2  D2   C2  C2  | D6  ||
V:3
D,2 | G,2 G,2 G,2 G,2 | G,2 A,2 B,2 B,2 | E2  D2   C2  B,2 | D6  \
D2  | D2  D2  B,2 G,2 | E,2 A,2 A,2 C2  | G,2 G,2  G,2 A,2 | B,6 ||
V:4
%%MIDI transpose -12
D2  | B,2 A,2 G,2 B,2 | C2  A,2 G,2 G2  | E2  G2   A2  E2  | D6  \
GA  | B,2 D2  E2  E2  | A,2 C2  D2  C2  | B,2 A,B, C2  A,2 | G,6 ||
%%%%%%%%%%%%%%%%%%%%%%%%
P:B
V:1
Bc  | d2  d2  d2  B2  | e2  c2  A2  Bd  | c2  B2   A2  G2  | d6  \
B2  | e2  d2  c2  B2  | A2  G2  F2  GA  | B2  G2   E2  F2  | G6  ||
V:2
G2  | G2  G2  G2  G2  | G2  G2  F2  D2  | G2  G2   E2  G2  | F6
D2  | C2  D2  EF  G2  | E2  E2  D2  E2  | D2  B,2  C2  D2  | D6  ||
V:3
DC  | B,2 D2  B,2 D2  | C2  E2  D2  B,2 | C2  D2   C2  G,2 | A,6 \
G,2 | G,2 G,2 C2  D2  | CD  CB, A,2 C2  | G,2 G,2  A,2 A,2 | B,6 ||
V:4
%%MIDI transpose -12
G,2 | G2  B2  G2  G2  | c2  C2  D2  G2  | E2  G2   C2  E2  | D6  \
G2  | C2  B,2 A,2 G,2 | A,2 C2  D2  C2  | B,2 E2   A,2 D2  | G,6 ||
%%%%%%%%%%%%%%%%%%%%%%%%


